rospo-light/16x16/actions/snap-orthogonal.svg

<svg height="16" viewBox="0 0 16 16" width="16" xmlns="http://www.w3.org/2000/svg"><path d="m6 2v3h1v-3zm0 4v1h1v-1zm-1 2v3h3v-3zm-4 1v1h1v-1zm2 0v1h1v-1zm6 0v1h1v-1zm2 0v1h3v-1zm-5 3v1h1v-1zm0 2v1h1v-1z" fill="#5c616c"/></svg>

<?xml version="1.0" encoding="UTF-8" standalone="no"?>
<svg xmlns="http://www.w3.org/2000/svg" width="22" height="22" viewBox="0 0 22 22">
 <defs>
  <style type="text/css" id="current-color-scheme">
   .ColorScheme-Text { color:#5c616c; } .ColorScheme-Highlight { color:#5294e2; }
  </style>
 </defs>
 <path style="fill:currentColor;opacity:1" class="ColorScheme-Text" transform="translate(3 3)" d="M 6 2 L 6 5 L 7 5 L 7 2 L 6 2 z M 6 6 L 6 7 L 7 7 L 7 6 L 6 6 z M 5 8 L 5 11 L 8 11 L 8 8 L 5 8 z M 1 9 L 1 10 L 2 10 L 2 9 L 1 9 z M 3 9 L 3 10 L 4 10 L 4 9 L 3 9 z M 9 9 L 9 10 L 10 10 L 10 9 L 9 9 z M 11 9 L 11 10 L 14 10 L 14 9 L 11 9 z M 6 12 L 6 13 L 7 13 L 7 12 L 6 12 z M 6 14 L 6 15 L 7 15 L 7 14 L 6 14 z"/>
</svg>
